icons/lines/messenger.svg

<svg xmlns="http://www.w3.org/2000/svg" width="24" height="24" viewBox="0 0 24 24" fill="none" stroke="currentColor" stroke-width="2" stroke-linecap="round" stroke-linejoin="round">
  <path d="m11.3 9.2-3.8 4.5 3.7-.9 1.5.9 3.8-4.5-3.5.9z" />
  <path d="M5.7 22 9 20.1c.9.3 1.9.4 3 .4 5.5 0 10-4.1 10-9.3C22 6.1 17.5 2 12 2S2 6.1 2 11.3c0 2.9 1.4 5.4 3.7 7.1z" />
</svg>

<svg xmlns="http://www.w3.org/2000/svg" width="24" height="24" viewBox="0 0 24 24" fill="none" stroke="currentColor" stroke-width="2" stroke-linecap="round" stroke-linejoin="round" >
  <path d="M5.7 18.4V22L9 20.1C9.9 20.4 10.9 20.5 12 20.5C17.5 20.5 22 16.4 22 11.2C22 6.1 17.5 2 12 2C6.5 2 2 6.1 2 11.3C2 14.2 3.4 16.7 5.7 18.4Z" stroke-miterlimit="10"/>
  <path d="M11.3 9.2L7.5 13.7L11.2 12.8L12.7 13.7L16.5 9.2L13 10.1L11.3 9.2Z" stroke-miterlimit="10"/>
  </svg>
